**kern	**dynam
*staff1	*staff1
*Ivioln	*Ivioln
*I"Violin 2	*I"Violin 2
*clefG2	*clefG2
*k[f#c#]	*k[f#c#]
*M12/8	*M12/8
=1-	=1-
1.r	.
=2	=2
1.r	.
=3	=3
1.r	.
=4	=4
1.r	.
=5	=5
1.r	.
*clefG2	*clefG2
=6	=6
2.A/	p
2.B/	.
=7	=7
2.A/	.
2.A/	>
=8	=8
2.A/	]
2.A/	pp
=9	=9
1.A	.
=10	=10
1.A	.
=11	=11
2.G/	.
2.A/	.
=12	=12
1.A	.
=13	=13
1.A	pp
=14	=14
1.A	.
=15	=15
2.B/	<
4.B/	(
4.c#/	[
=16	=16
2.c#/	>
[2.A/	)
=17	=17
4.A/]	)
4r	)
8r	)
4r	)
8r	]
(4.B/	pp
=18	=18
4.A/)	.
4r	.
8r	.
4r	.
8r	.
4.A/	.
=19	=19
4.G#/	<
4.A/	(
4.B/	(
4.A/	(
=20	=20
4.A/	[
2.A/	> ]
4.A/	pp
=21	=21
4.A/	.
4r	.
8r	.
4r	.
8r	.
(4.B/	.
=22	=22
4.A/)	.
4r	.
8r	.
4r	.
8r	.
4.A/	.
=23	=23
4.G#/	<
4.A/	[
4.B/	>
4.B/	)
=24	=24
(8A#'/L	)
8A#'/	)
8A#'/J	)
8A#'/L	)
8A#'/	)
8A#'/J)	)
(8B'/L	)
8B'/	)
8B'/J	)
8B'/L	)
8B'/	)
8B'/J)	)
=25	=25
(8c#'/L	)
8c#'/	)
8c#/J	)
8c#'/L	)
8c#'/	)
8c#'/J)	)
(8B'/L	)
8B'/	)
8B'/J	)
8B'/L	)
8B'/	)
8B'/J)	]
=26	=26
(8c#'/ 8a#'/L	<
8c#'/ 8a#'/	(
8c#'/ 8a#'/J	(
8c#'/ 8a#'/L	(
8c#'/ 8a#'/	(
8c#'/) 8a#'/J	(
(8d'/ 8dd'/L	(
8d'/ 8dd'/	(
8d'/ 8dd'/J	(
8d'/ 8dd'/L	(
8d'/ 8dd'/	(
8d'/) 8dd'/J	[
=27	=27
(8f#'/ 8cc#'/L	mp
8f#/ 8cc#/	.
8f#'/ 8cc#'/J	.
8c#'/ 8a#'/L	.
8c#'/ 8a#'/	.
8c#'/) 8a#'/J	.
(8f#'/ 8b'/L	.
8f#'/ 8b'/	.
8f#'/ 8b'/J	.
8f#'/ 8b'/L	.
8f#'/ 8b'/	.
8f#'/) 8b'/J	.
=28	=28
(8e#'/L	>
8e#'/	)
8e#'/J)	)
(8f#'/L	)
8f#'/	)
8f#'/J)	)
2.r	]
=29	=29
(8e#'/L	p
8e#'/	.
8e#'/J	.
8f#'/)	.
8r	.
8r	.
2.r	.
=30	=30
1.r	.
=31	=31
1.r	.
=32	=32
8r	.
8r	.
(8B/	mf
[4.B-/	.
4B-/])	>
(8A/	)
[4.A/	)
=33	=33
8A/])	)
8r	)
8r	)
4r	)
8r	)
2.r	)
=34	=34
1.r	]
=35	=35
4.d/	pp
([2.c#/	.
4c#/]	.
8A/)	.
=36	=36
1.d	mf
=37	=37
[1.A	p
=38	=38
2.A/_	.
4.A/_	mf
8A/]	.
8r	.
8r	.
=39	=39
4.B/	f
4.c#/	.
4.d/	.
4r	.
8r	.
=40	=40
4.B/	.
4.c#/	.
4.d/	.
4r	.
8r	.
=41	=41
4.e#/	ff
4.f#/	.
4.G#/ 4.d/	.
4r	.
8r	.
=42	=42
4.e#/	.
4.f#/	.
2.G#/ 2.d/	.
=43	=43
2.Gn/ 2.d/	.
2.c#/	.
=44	=44
1.r	.
=45	=45
2.d/	pp
2.c#/	.
=46	=46
2.B/	<
2.A/	(
=47	=47
(4.G#/	(
4.Gn/)	[
8B/ 8d/	f
8r	.
8r	.
4r	.
8r	.
=48	=48
1.r	.
=49	=49
2.d/	pp
2.c#/	.
=50	=50
2.B/	.
2.A/	.
=51	=51
4.G#/	.
4.Gn/	.
*^	*
4.ff#/	4.f#\	mf
4ff#/	4f#\	.
8ff#/	8f#\	.
*v	*v	*
=52	=52
*^	*
(4.ff#/	(4.f#\	.
4gg/)	4g\)	.
8gg/	8g\	.
(4.gg/	(4.g\	.
4gg#/)	4g#\)	.
8gg#/	8g#\	.
=53	=53	=53
(8.gg#/L	(8.g#\L	.
8.aa/J)	8.a\J)	.
8.aa/L	8.a\L	.
8.aa/J	8.a\J	.
(8.aa/L	(8.a\L	.
8.aa#/J)	8.a#\J)	.
8.aa#/L	8.a#\L	.
8.aa#/J	8.a#\J	.
=54	=54	=54
(4.aa#/	(4.a#\	.
4bb/)	4b\)	.
8bb/	8b\	.
(4.bb/	(4.b\	.
4cccn/)	4ccn\)	.
8ccc/	8cc\	.
=55	=55	=55
(8.cccn/L	(8.ccn\L	.
8.ccc#/J)	8.cc#\J)	.
8.ccc#/L	8.cc#\L	.
8.ccc#/J	8.cc#\J	.
(8.ccc#/L	(8.cc#\L	.
8.ddd/J)	8.dd\J)	.
8.ddd/L	8.dd\L	.
8.ddd/J	8.dd\J	.
*v	*v	*
=56	=56
*^	*
4.ddd/	4.dd\	fff
(4ff#/	(4f#\	.
8bb/)	8b\)	.
2.aa/	2.g\ 2.a\	> ]
=57	=57	=57
4.bb/	4.b\	ff
*v	*v	*
*^	*
(4dd/	(4d\	.
8g/)	8g\)	.
2.f#/	2.f#\	.
=58	=58	=58
4.G/ 4.g/	4.G\ 4.g\	f
(4b/	(4B\	.
8cc#/)	8c#\)	.
([2.d/ [2.dd/	2.d\ [2.dd\	>
=59	=59	=59
4.d/] 4.dd/])	4.d\ 4.dd\]	]
(4a/	(4A\	p
8b/)	8B\)	.
([4.dd/	([4.d\	>
4dd/]	4d\]	)
8cc#/)	8c#\)	]
=60	=60	=60
4.dd/	4.d\	<
(4a/	(4A\	(
8b/)	8B\)	[
([4.dd/	([4.d\	>
4dd/]	4d\]	)
8cc#/)	8c#\)	]
=61	=61	=61
(4.ee^/	(4.e^\	p
[4.dd/	[4.d\	.
8dd/])	8d\])	.
*v	*v	*
8r	.
8r	.
*^	*
(4dd/	(4d\	.
8cc#/)	8c#\)	.
=62	=62	=62
(4.ee^/	(4.e^\	.
[4.dd/	[4.d\	.
8dd/])	8d\])	.
*v	*v	*
8r	.
8r	.
(4d/	.
8c#/)	.
=63	=63
4.e/	<
(4d/	(
8c#/)	(
4.c#/	(
(4B/	(
8A/)	[
=64	=64
4.A/	mf
2.G#/	.
(4B/	mf
8A/)	.
=65	=65
4.A^/	.
2.G#/	> ]
(4B/	p
8A/)	.
=66||	=66||
*M4/4	*M4/4
*met(c)	*met(c)
(2A/	p
[2G#/	.
=67	=67
2G#/])	.
[2A/	.
=68	=68
2A/]	.
2G#/ 2e#/	.
=69	=69
2B/ 2f#/	.
2G#/ 2e#/	.
=70	=70
2B/ 2f#/	.
2G#/ 2e#/	.
=71	=71
8G#/L	p
[8G#/J	.
8G#/L]	.
(8G#/J	.
8A/L)	.
[8A/J	.
8A/L]	.
8A/J	.
=72	=72
1r	.
=73	=73
2r	.
8G#'/L	.
[8G#/	.
8G#/]	.
8G#'/J	.
=74	=74
2r	.
8G#'/L	.
[8G#/	.
8G#/]	.
8G#'/J	.
=75	=75
1r	.
=76	=76
4.cc#\	mf
(8dd\	.
8ff#\L	.
8ee\)	>
8dd~\	)
8cc#~\J	)
=77	=77
(4cc#^\	)
8b\)	)
8r	)
8r	)
(8f#/L	)
8g#/	)
8a/J)	)
=78	=78
(4g#/	)
4a/)	)
8r	)
4g#/	)
8g#/	)
=79	=79
1r	]
=80	=80
4.dd#\	mf
(8ee\	.
8gg#\L	.
8ff#\)	>
8ee~\	)
8dd#~\J	)
=81	=81
(4dd#^\	)
8cc#\)	)
8r	)
8r	)
(8g#/L	)
8a#/	)
8b/J)	)
=82	=82
(4b-\	)
4cc-\)	)
8r	)
4b-\	)
8b-\	]
=83	=83
2B-/	mf
2B-/	.
=84	=84
2e-/	.
(4a-/	.
4B-/)	.
=85	=85
2a-/	.
2a-/	.
=86	=86
2a-/	.
2a-/	.
=87	=87
4.B-/ 4.b-/	mf
(8c-/ (8cc-/	<
8e-/ 8ee/L	[
8d-/) 8dd-/)	>
8c-/ 8cc-/	)
8B-/ 8b-/J	)
=88	=88
(2A-/ (2a-/	)
2G/) 2d/ 2g/)	]
=89	=89
*^	*
4.dd#/	4.d#\	f
*v	*v	*
*^	*
(8ee/	(8e\	.
8gg#/L	8g#\L	.
8ff#/	8f#\)	.
8ee~/)	8e~\	.
8dd#~/J	8d#~\J	.
*v	*v	*
=90	=90
(2c#^/ (2cc#^/	.
2B#/) 2b#/)	.
=91	=91
1r	.
=92	=92
1r	.
=93	=93
4r	.
(16dd#\LL	mf
16ee\	.
16cc#\	.
16dd#\JJ	.
8b#\)	.
8r	.
(16bbn\LL	.
16bb#\	.
16bbn\	.
16bb#\JJ	.
=94	=94
8ccc#\)	.
8r	.
(16dd#\LL	.
16ee\	.
16cc#\	.
16dd#\JJ	.
8b#\)	.
8r	.
(16bbn\LL	.
16bb#\	.
16bbn\	.
16bb#\JJ)	.
=95	=95
4.g#/	f
8dd#\	.
24ff#\LL	.
24ff#\	.
24ff#\J	.
24ee\L	.
24ee\	.
24ee\JJ	.
24dd#\LL	.
24dd#\	.
24dd#\J	.
24cc#\L	.
24cc#\	.
24cc#\JJ	.
=96	=96
8b/L	.
8a/	.
8g#/	.
8f#/J	.
8ee\L	.
8dd#\	.
8cc#\	.
8b#\J	.
=97	=97
8aa\L	fff
8gg#\	.
8ff#\	.
8ee\J	.
8dd#\L	.
8cc#\	.
8bn\	.
8a\J	.
=98	=98
8g#/L	.
8f#/	.
8e/	.
8d#/J	.
8c#/L	.
8B/	.
8A/	.
8G#/J	.
=99	=99
[4A/	.
8A/]	.
8r	.
2r	.
=100	=100
8A^/ 8e^/ 8a^/L	fff
8A^/ 8e^/ 8a^/J	.
4r	.
2r	.
=101	=101
1r	.
=102	=102
8A^/ 8e^/ 8a^/L	.
8A^/ 8e^/ 8a^/J	.
4r	.
4r	.
4e/ 4b/	.
=103	=103
4A/ 4e/ 4a/	.
4B/ 4g/	.
4A/ 4e/ 4a/	.
4G/ 4e/	.
=104	=104
8A^/ 8e^/ 8a^/L	.
8A^/ 8e^/ 8a^/J	.
4r	.
4r	.
4e/ 4b/	.
=105	=105
4A/ 4e/ 4a/	.
4B/ 4g/	.
4A/ 4e/ 4a/	.
4G/ 4e/	.
=106	=106
8A^/ 8e^/ 8a^/L	.
8A^/ 8e^/ 8a^/J	.
4r	.
4r	.
8A^/ 8e^/ 8a^/	.
8r	.
=107	=107
4r	.
8A^/ 8e^/ 8a^/	.
8r	.
4r	.
8A^/ 8e^/ 8a^/	.
8r;	.
=108||	=108||
*M12/8	*M12/8
*rscale:3/2	*
6r	.
12r	.
6A/ 6e/ 6a/	mf
12r	.
6A/	.
12r	.
6A/ 6e/ 6a/	.
12r	.
=109	=109
6r	.
12r	.
6A/ 6e/ 6a/	.
12r	.
6A/	.
12r	.
6A/ 6e/ 6a/	.
12r	.
=110	=110
6r	.
12r	.
6d/ 6a/	.
12r	.
6A/	.
12r	.
6d/ 6a/	.
12r	.
=111	=111
6A/	.
12r	.
6d/ 6a/	.
12r	.
6A/	.
12r	.
6d/ 6a/	.
12r	.
=112	=112
6G/	.
12r	.
6e/ 6a/	.
12r	.
6A/	.
12r	.
6e/ 6a/	.
12r	.
=113	=113
6A/	.
12r	.
6d/ 6a/	.
12r	.
6A/	.
12r	.
6d/ 6a/	.
12r	.
=114	=114
6G/ 6d/	.
12r	.
6d/ 6dd/	.
12r	.
6A/ 6e/	.
12r	.
6a\ 6ee\	.
12r	.
=115	=115
6d/	.
12r	.
6dd\	.
12r	.
6A/ 6d/	.
12r	.
6d/ 6a/	.
12r	.
=116	=116
6A/	.
12r	.
6g/	.
12r	.
6e/	.
12r	.
6G/ 6e/	.
12r	.
=117	=117
6A/	<
12r	(
6d/ 6a/	(
12r	(
6A/	(
12r	(
6d/ 6a/	(
12r	(
=118	=118
6f#/	(
12r	(
6e#/	(
12r	(
6B/	(
12r	(
6b\	(
12r	[
*rscale:1	*
=119	=119
4c#/ 4f#/	f
8r	.
4r	.
8r	.
4r	.
8r	.
4.A/ 4.f#/	mp
=120	=120
*rscale:3/2	*
4A/ 4f#/	< [
4b\	>
4e/	)
4b\ 4ee\	]
=121	=121
4G/ 4e/	<
4a/	[
4d/	>
4dd\	]
=122	=122
4d/	<
4d/	(
4d/	(
4A/ 4a/	[
=123	=123
(6B/	f
[12A/	.
12A/])	.
12r	.
12r	.
2r	.
=124	=124
2f#/ 2b/	mp
2b\ 2ee\	> ]
=125	=125
2e/ 2a/	< [
2d/ 2dd/	> ]
=126	=126
4f#/	f
6f#/	.
12f#/	.
([4f#/	.
6f#/]	.
12e/)	.
=127	=127
4b\	ff
6b\	.
12b\	.
(6b\	>
[12a/	)
16a/LL])	)
(16A/	)
16B/	)
[16A/JJ)	)
=128	=128
*M4/4	*M4/4
*met(c)	*met(c)
*rscale:2/3	*
(32%3A/LL]	)
32%3A/	)
32%3B/	)
32%3A/JJ	)
32%3A/LL)	)
(32%3A/	)
32%3B/	)
[32%3A/JJ	)
32%3A/LL])	)
(32%3A/	)
32%3B/	)
[32%3A/JJ	)
32%3A/LL])	)
(32%3A/	)
32%3B/	)
[32%3A/JJ	)
=129	=129
32%3A/LL])	)
(32%3A/	)
32%3B/	)
[32%3A/JJ	)
32%3A/LL])	)
(32%3A/	)
32%3B/	)
[32%3A/JJ	)
32%3A/LL])	)
(32%3A/	)
32%3B/	)
[32%3A/JJ	)
32%3A/LL])	)
(32%3A/	)
32%3B/	)
32%3A/JJ	)
=130	=130
32%3d/LL)	)
(32%3d/	)
32%3e/	)
[32%3d/JJ	)
32%3d/LL])	)
(32%3d/	)
32%3e/	)
32%3d/JJ	)
32%3c#/LL)	)
(32%3c#/	)
32%3d/	)
[32%3c#/JJ	)
32%3c#/LL])	)
(32%3c#/	)
32%3d/	)
32%3c#/JJ	)
=131	=131
32%3d/LL)	]
(32%3d/	f
32%3e/	.
[32%3d/JJ	.
32%3d/LL])	.
(32%3d/	.
32%3e/	.
[32%3d/JJ	.
32%3d/LL])	>
(32%3d/	)
32%3e/	)
[32%3d/JJ	)
32%3d/LL])	)
(32%3d/	)
32%3e/	)
32%3d/JJ	]
=132	=132
32%3A/LL)	mf
(32%3A/	.
32%3B/	.
[32%3A/JJ	.
32%3A/LL])	.
(32%3A/	.
32%3B/	.
[32%3A/JJ	.
32%3A/LL])	.
(32%3A/	.
32%3B/	.
[32%3A/JJ	.
32%3A/LL])	.
(32%3A/	.
32%3B/	.
[32%3A/JJ	.
=133	=133
32%3A/LL])	.
(32%3A/	.
32%3B/	.
[32%3A/JJ	.
32%3A/LL])	.
(32%3A/	.
32%3B/	.
[32%3A/JJ	.
32%3A/LL])	.
(32%3A/	.
32%3B/	.
[32%3A/JJ	.
32%3A/LL])	.
(32%3A/	.
32%3B/	.
32%3A/JJ	.
=134	=134
32%3d/LL)	f
(32%3d/	.
32%3e/	.
32%3d/JJ	.
32%3c#/LL)	.
(32%3c#/	.
32%3d/	.
32%3c#/JJ	.
32%3B/LL)	.
(32%3B/	.
32%3c#/	.
32%3B/JJ)	.
4.r	.
=135	=135
32%3d'/LL	.
(32%3d/	.
32%3e/	.
32%3d/JJ	.
32%3c#/LL)	.
(32%3c#/	.
32%3d/	.
32%3c#/JJ	.
32%3B/LL)	.
(32%3B/	.
32%3c#/	.
32%3B/JJ)	.
4.r	.
=136	=136
32%3g#'/	ff
32%3g#/	<
32%3a/	(
32%3g#/	(
32%3f#/	(
32%3f#/	(
32%3g#/	(
32%3f#/	(
32%3e#/	(
32%3e#/	(
32%3f#/	(
32%3e#/	(
4.r	(
=137	=137
32%3g#'/LL	(
(32%3g#/	(
32%3a/	(
32%3g#/JJ	(
32%3f#/LL)	(
(32%3f#/	(
32%3g#/	(
32%3f#/JJ	(
32%3e#/LL)	(
(32%3e#/	(
32%3f#/	(
32%3e#/JJ)	(
4.r	(
*rscale:1	*
=138	=138
*M12/8	*M12/8
[4.d/ [4.dd/	(
8d/] 8dd/]	(
8r	(
8r	(
[4.d/ [4.dd/	(
8d/] 8dd/]	(
8r	(
8r	(
=139	=139
[4.d/ [4.dd/	(
8d'/] 8dd'/]	(
8r	(
8r	(
[4.cc#\ [4.gg\	(
8cc#\] 8gg\]	(
8r	(
8r	(
=140	=140
4r	(
8r	(
8r	[
8G/L	ff
8B-/J	.
8Bn/L	.
8d#/	.
8e/J	.
8g/L	.
8g#/	.
8a/J	.
=141	=141
8a#\L	.
8b\	.
8cc#\J	.
8dd\L	.
8dd#\	.
8ee\J	.
8ff#\L	.
8gg\	.
8aan\J	.
8aa#\L	.
8bb\	.
8ccc#\J	.
=142	=142
*rscale:3/2	*
4ddd\	fff
*^	*
(6ff#/	(6f#\	.
12bb/)	(12b\)	.
[4aa/	4a\	.
6aa/]	6a\)	.
12aa/	12a\	.
=143	=143	=143
8bb/L	8b\L	.
8ccc#/J	8cc#\J	.
8ddd/L	8dd\L	.
8bb/J	8b\J	.
[4fff#/	[4ff#\	.
12fff#/]	12ff#\]	.
6ryy	12r	.
.	12r	.
=144	=144	=144
8bb/L	8b\L	.
8ccc#/J	8cc#\J	.
8ddd/L	8dd\L	.
8bb/J	8b\J	.
4fff#/	4ff#\	.
(8eee/L	(8ee\L	.
8ddd/J)	8dd\J)	.
=145	=145	=145
4ddd/	4dd\	.
(8ccc#/L	8cc#\L	.
8bb/J)	8b\J	.
(12ee/L	(12e\L	.
12gg/)	12g\)	.
12bb~/J	12b~\J	.
(6bb/	(6b\	.
12aa/)	12a\)	.
=146	=146	=146
4ddd/	4dd\	.
(6ff#/	(6f#\	.
12bb/)	12b\)	.
[4aa/	[4a\	.
6aa/]	6a\]	.
12aa/	12a\	.
=147	=147	=147
8bb/L	8b\L	.
8ccc#/J	8cc#\J	.
8ddd/L	8dd\L	.
8bb/J	8b\J	.
[4fff#/	[4ff#\	.
12fff#/]	12ff#\]	.
6ryy	12r	.
.	12r	.
=148	=148	=148
8bb/L	8b\L	.
8ccc#/J	8cc#\J	.
8ddd/L	8dd\L	.
8bb/J	8b\J	.
4fff#/	4ff#\	.
6ff#/	6ff#\	.
12ff#/	12ff#\	.
*rscale:1	*	*
*v	*v	*
=149	=149
(4.ff#\	.
4gg\)	.
8gg\	.
(4.gg\	.
4gg#\)	.
8gg#\	.
=150	=150
(8.gg#\L	.
8.aa\J)	.
8.aa\L	.
8.aa\J	.
(8.aa\L	.
8.aa#\J)	.
8.aa#\L	.
8.aa#\J	.
=151	=151
(4.aa#\	.
4bb\)	.
8bb\	.
(4.bb\	.
4cccn\)	.
8ccc\	.
=152	=152
(8.cccn\L	.
8.ccc#\J)	.
8.ccc#\L	.
8.ccc#\J	.
(8.ccc#\L	.
8.ddd\J)	.
8.ddd\L	.
8.ddd\J	.
=153||	=153||
*M4/4	*M4/4
*met(c)	*met(c)
4ddd\	.
(8ff#\L	>
8bb\J)	)
2aa\	]
=154	=154
4bb\	ff
(8dd\L	.
8gg\J)	>
2ff#\	]
=155	=155
*M12/8	*M12/8
*rscale:3/2	*
4gg\	f
(6b\	.
12cc#\)	.
([2d/ 2dd/	>
=156	=156
4d/] 4dd/)	]
*^	*
(6a/	6A\	mf
12b/)	12B\	.
([4dd/	[4d\	>
6dd/]	6d\]	)
12cc#/)	12c#\	]
=157	=157	=157
4dd/	4d\	p
(6A/	6A\	.
12B/)	12B\	.
4d/	[4d\	>
6d/	6d\]	)
12c#/	12c#\	]
*v	*v	*
=158||	=158||
*rscale:1	*
*M4/4	*M4/4
*met(c)	*met(c)
(8e/L	fff
8d/J)	.
4r	.
2r	.
=159	=159
1r	.
=160	=160
1r	.
=161	=161
1r	.
=162	=162
4B/	.
4fn/	.
4f/	.
8b\L	.
8dd\J	.
=163	=163
8fn\L	.
8b\	.
8ffn\	.
8bb\J	.
8b\L	.
8ff\	.
8bb\	.
8ddd\J	.
=164	=164
12dd\ 12ddd\L	fff
12dd\ 12ddd\	.
12dd\ 12ddd\J	.
12dd\ 12ddd\L	.
12dd\ 12ddd\	.
12dd\ 12ddd\J	.
8dd^\ 8ddd^\L	.
8dd^\ 8ddd^\J	.
8dd^\ 8ddd^\L	.
8dd^\ 8ddd^\J	.
=165	=165
8dd^\ 8ee^\L	.
8dd^\ 8ee^\J	.
4r	.
2r	.
=166	=166
1r	.
=167	=167
1r	.
=168	=168
1r	.
=169	=169
1r	.
=170||	=170||
*M12/8	*M12/8
8d/	pp
8r	.
8r	.
4r	.
8r	.
2.r	.
=171	=171
2.r	.
4.e/	.
(4B/	.
8c#/)	.
=172	=172
[4.d/	.
8d/]	.
8r	.
8r	.
4.e/	.
(4B/	.
8c#/)	.
=173	=173
4.d/	.
4r	.
8r	.
2.r	.
=174	=174
(8.A/L	<
8.B/J	(
8.c#/L	(
8.d/J)	(
(8.f#/L	(
8.e/J	(
8.d#/L	(
8.e/J)	[
=175	=175
(4.g/	>
4.f#/)	)
2.r	]
=176	=176
(8.A/L	<
8.B/J	(
8.c#/L	(
8.d/J)	(
(8.f#/L	(
8.e/J	(
8.d#/L	(
8.e/J)	[
=177	=177
(4.g/	>
4.f#/)	]
4.e/	pp
(4B/	.
8c#/	.
=178	=178
8d/)	.
8r	.
8r	.
4r	.
(8f#/	.
4.e/)	.
(4B/	.
8c#/)	.
=179	=179
8A/ 8d/	pp
8r	.
8r	.
4r	.
8r	.
8A/ 8d/	.
8r	.
8r	.
4r	.
8r	.
=180	=180
8A/ 8d/	ppp
8r	.
8r	.
(4A/	.
8e/)	.
4.d/	.
4r	.
8r	.
=181	=181
1.r	.
=182	=182
1r	.
=183	=183
[1.A	p
=184	=184
2.A/_	.
8A/]	.
8r	.
8r	.
4r	.
8r;	.
==	==
*-	*-
